X: 282
T: the Gentle Maiden
B: O'Neill's 282
N: "Slow"
Z: 1997 by John Chambers <jc@trillian.mit.edu>
M: 6/8
L: 1/8
K:G
F \
|GAG FED|d3 efg|dcB A2G|E3- E2F \
|GAG FED|d3 efg|dcB A2BAG|G3- G2||
||d \
|def g2g|g3 gfe|dcB BA2G|E3- E2F \
|GAG FED|d3 efg|dcB A2BAG|G3- G2||
